src/assets/images/branding/mojang.svg

<svg fill="none" height="35" viewBox="0 0 231 35" width="231" xmlns="http://www.w3.org/2000/svg"><g fill="#fff"><path d="m120.252 14.8765v17.7692c0 .9129.74 1.653 1.653 1.653h4.959c.913 0 1.653-.7371 1.653-1.65v-17.359c0-4.9588 4.132-6.19853 6.199-6.19853h9.091c.913 0 1.653.74006 1.653 1.65293v5.3721c0 .9129-.74 1.653-1.653 1.653h-8.265c-.913 0-1.653.74-1.653 1.6529v4.9589c0 .9129.74 1.6529 1.653 1.6529h8.265c.913 0 1.653.7401 1.653 1.653v4.9588c0 .9129.74 1.653 1.653 1.653h4.959c.913 0 1.653-.7401 1.653-1.653v-21.9016c0-.91287-.74-1.65293-1.653-1.65293h-3.72c-2.314 0-2.892-1.92844-2.892-2.89266v-3.71914c0-.9129-.316-1.652954-1.229-1.652954h-10.342c-11.24 0-13.774 9.366684-13.637 14.050084z"/><path d="m159.097 2.06616v30.57964c0 .9129.74 1.6529 1.653 1.6529h4.958c.913 0 1.653-.74 1.653-1.6529v-21.9016c0-.91294.74-1.653 1.653-1.653h14.05c.913 0 1.653.74006 1.653 1.653v21.9016c0 .9129.74 1.6529 1.653 1.6529h4.546c.913 0 1.653-.74 1.653-1.6529v-21.9016c0-.91294-.74-1.653-1.653-1.653h-3.719c-2.314 0-2.893-2.20393-2.893-3.3059v-3.71914c0-.9129-.74-1.652952-1.653-1.652952h-21.901c-.913 0-1.653.740052-1.653 1.652952z"/><path d="m231 2.06616v4.95885c0 .9129-.74 1.65296-1.653 1.65296h-17.356c-2.893 0-7.025 2.47943-7.025 8.67803 0 6.1985 4.132 8.2647 6.612 8.2647 1.841 0 2.637-1.1867 2.853-1.9079.031-.1043.039-.2131.039-.3219v-3.9687c0-.9129.74-1.653 1.653-1.653h13.224c.913 0 1.653.7401 1.653 1.653v13.6368c0 .9129-.74 1.653-1.653 1.653h-4.959c-.913 0-1.653-.7401-1.653-1.653v-5.3721c0-.9129-.74-1.6529-1.653-1.6529h-3.719c-.913 0-1.653.74-1.653 1.6529v5.3721c0 .9129-.74 1.653-1.653 1.653h-1.929c-.091 0-.179-.0068-.269-.0227-5-.8885-14.745-5.7076-14.745-18.1598 0-12.56245 9.918-15.978546 14.877-16.116292h17.356c.913 0 1.653.740052 1.653 1.652952z"/><path clip-rule="evenodd" d="m60.3326 34.712c9.5854 0 17.3559-7.7706 17.3559-17.356 0-9.58546-7.7705-17.356-17.3559-17.356-9.5855 0-17.356 7.77054-17.356 17.356 0 9.5854 7.7705 17.356 17.356 17.356zm.0002-9.4669c4.357 0 7.8891-3.532 7.8891-7.8891 0-4.357-3.5321-7.88906-7.8891-7.88906s-7.8891 3.53206-7.8891 7.88906c0 4.3571 3.5321 7.8891 7.8891 7.8891z" fill-rule="evenodd"/><path d="m0 1.65295v31.40605c0 .9129.740052 1.653 1.65295 1.653h4.95886c.9129 0 1.65295-.7401 1.65295-1.653v-23.14129c0-.41324 1.44404-1.23971 3.71914-1.23971s3.7191.82647 3.7191 1.23971v14.05009c0 .9129.7401 1.653 1.653 1.653h4.5456c.9129 0 1.653-.7401 1.653-1.653v-14.05009c0-.41324 1.0522-1.23971 3.3059-1.23971 2.2536 0 2.8926.82647 2.8926 1.23971l.3862 23.16889c.015.902.7505 1.6254 1.6527 1.6254h4.9862c.9129 0 1.6529-.7401 1.6529-1.653v-22.7281c0-.91285-.7399-1.6529-1.6528-1.6529h-4.1325c-2.3141 0-2.8927-1.65296-2.8927-2.47943v-4.54562c0-.912898-.74-1.65295-1.6529-1.65295h-26.44725c-.912898 0-1.65295.740047-1.65295 1.65295z"/><path d="m87.6064 17.356h-4.4302c-.7879 0-1.4722.5571-1.493 1.3448-.066 2.5084.7215 6.6771 4.2703 10.2259 4.2977 4.2976 8.4025 5.372 9.9177 5.372h8.9588c.963 0 1.721-.821 1.757-1.7832.07-1.8993.466-4.2699 1.681-5.2418 1.247-.9976 3.827-1.4308 5.788-1.5833.91-.0709 1.651-.8097 1.651-1.7226v-21.90161c0-.9129-.74-1.652952-1.653-1.652952h-22.3152c-.9129 0-1.6529.740052-1.6529 1.652952v4.54562c0 .9129.74 1.65295 1.6529 1.65295h14.0502c.913 0 1.653.74005 1.653 1.65295v14.87659c0 .9129-.738 1.6529-1.651 1.6529h-9.9198c-4.4443 0-6.088-4.2788-6.4997-7.4437-.1178-.9052-.8522-1.6475-1.7651-1.6475z"/></g></svg>

<svg width="231" height="35" viewBox="0 0 231 35" fill="none" xmlns="http://www.w3.org/2000/svg">
  <path d="M120.252 14.8765V32.6457C120.252 33.5586 120.992 34.2987 121.905 34.2987H126.864C127.777 34.2987 128.517 33.5616 128.517 32.6487V15.2897C128.517 10.3309 132.649 9.09117 134.716 9.09117H143.807C144.72 9.09117 145.46 9.83123 145.46 10.7441V16.1162C145.46 17.0291 144.72 17.7692 143.807 17.7692H135.542C134.629 17.7692 133.889 18.5092 133.889 19.4221V24.381C133.889 25.2939 134.629 26.0339 135.542 26.0339H143.807C144.72 26.0339 145.46 26.774 145.46 27.6869V32.6457C145.46 33.5586 146.2 34.2987 147.113 34.2987H152.072C152.985 34.2987 153.725 33.5586 153.725 32.6457V10.7441C153.725 9.83123 152.985 9.09117 152.072 9.09117H148.352C146.038 9.09117 145.46 7.16273 145.46 6.19851V2.47937C145.46 1.56647 145.144 0.826416 144.231 0.826416H133.889C122.649 0.826416 120.115 10.1931 120.252 14.8765Z" fill="white"/>
  <path d="M159.097 2.06616V32.6458C159.097 33.5587 159.837 34.2987 160.75 34.2987H165.708C166.621 34.2987 167.361 33.5587 167.361 32.6458V10.7442C167.361 9.83126 168.101 9.0912 169.014 9.0912H183.064C183.977 9.0912 184.717 9.83126 184.717 10.7442V32.6458C184.717 33.5587 185.457 34.2987 186.37 34.2987H190.916C191.829 34.2987 192.569 33.5587 192.569 32.6458V10.7442C192.569 9.83126 191.829 9.0912 190.916 9.0912H187.197C184.883 9.0912 184.304 6.88727 184.304 5.7853V2.06616C184.304 1.15326 183.564 0.413208 182.651 0.413208H160.75C159.837 0.413208 159.097 1.15326 159.097 2.06616Z" fill="white"/>
  <path d="M231 2.06616V7.02501C231 7.93791 230.26 8.67797 229.347 8.67797H211.991C209.098 8.67797 204.966 11.1574 204.966 17.356C204.966 23.5545 209.098 25.6207 211.578 25.6207C213.419 25.6207 214.215 24.434 214.431 23.7128C214.462 23.6085 214.47 23.4997 214.47 23.3909V19.4222C214.47 18.5093 215.21 17.7692 216.123 17.7692H229.347C230.26 17.7692 231 18.5093 231 19.4222V33.059C231 33.9719 230.26 34.712 229.347 34.712H224.388C223.475 34.712 222.735 33.9719 222.735 33.059V27.6869C222.735 26.774 221.995 26.034 221.082 26.034H217.363C216.45 26.034 215.71 26.774 215.71 27.6869V33.059C215.71 33.9719 214.97 34.712 214.057 34.712H212.128C212.037 34.712 211.949 34.7052 211.859 34.6893C206.859 33.8008 197.114 28.9817 197.114 16.5295C197.114 3.96705 207.032 0.550954 211.991 0.413208H229.347C230.26 0.413208 231 1.15326 231 2.06616Z" fill="white"/>
  <path fill-rule="evenodd" clip-rule="evenodd" d="M60.3326 34.712C69.918 34.712 77.6885 26.9414 77.6885 17.356C77.6885 7.77054 69.918 0 60.3326 0C50.7471 0 42.9766 7.77054 42.9766 17.356C42.9766 26.9414 50.7471 34.712 60.3326 34.712ZM60.3328 25.2451C64.6898 25.2451 68.2219 21.7131 68.2219 17.356C68.2219 12.999 64.6898 9.46694 60.3328 9.46694C55.9758 9.46694 52.4437 12.999 52.4437 17.356C52.4437 21.7131 55.9758 25.2451 60.3328 25.2451Z" fill="white"/>
  <path d="M0 1.65295V33.059C0 33.9719 0.740052 34.712 1.65295 34.712H6.61181C7.52471 34.712 8.26476 33.9719 8.26476 33.059V9.91771C8.26476 9.50447 9.7088 8.678 11.9839 8.678C14.259 8.678 15.703 9.50447 15.703 9.91771V23.9678C15.703 24.8807 16.4431 25.6208 17.356 25.6208H21.9016C22.8145 25.6208 23.5546 24.8807 23.5546 23.9678V9.91771C23.5546 9.50447 24.6068 8.678 26.8605 8.678C29.1141 8.678 29.7531 9.50447 29.7531 9.91771L30.1393 33.0866C30.1543 33.9886 30.8898 34.712 31.792 34.712H36.7782C37.6911 34.712 38.4311 33.9719 38.4311 33.059V10.3309C38.4311 9.41805 37.6912 8.678 36.7783 8.678H32.6458C30.3317 8.678 29.7531 7.02504 29.7531 6.19857V1.65295C29.7531 0.740052 29.0131 0 28.1002 0H1.65295C0.740052 0 0 0.740047 0 1.65295Z" fill="white"/>
  <path d="M87.6064 17.356H83.1762C82.3883 17.356 81.704 17.9131 81.6832 18.7008C81.6172 21.2092 82.4047 25.3779 85.9535 28.9267C90.2512 33.2243 94.356 34.2987 95.8712 34.2987H104.83C105.793 34.2987 106.551 33.4777 106.587 32.5155C106.657 30.6162 107.053 28.2456 108.268 27.2737C109.515 26.2761 112.095 25.8429 114.056 25.6904C114.966 25.6195 115.707 24.8807 115.707 23.9678V2.06619C115.707 1.15329 114.967 0.413238 114.054 0.413238H91.7388C90.8259 0.413238 90.0859 1.15329 90.0859 2.06619V6.61181C90.0859 7.52471 90.8259 8.26476 91.7388 8.26476H105.789C106.702 8.26476 107.442 9.00481 107.442 9.91771V24.7943C107.442 25.7072 106.704 26.4472 105.791 26.4472H95.8712C91.4269 26.4472 89.7832 22.1684 89.3715 19.0035C89.2537 18.0983 88.5193 17.356 87.6064 17.356Z" fill="white"/>
</svg>
